X:1
T:Anglais efter Per Nilsson Dahlberg
T:(SvL Skne nr. 227)
S:efter Per Nilsson Dahlberg
S:Svenska Ltar
R:Anglais
Z:Patrik Mnsson, 2009-01-03
O:Nym, Skne
M:2/4
L:1/16
K:F
|: F2A2 c2f2 | (ef)ge (fa)fc | F2A2 c2f2 | (ef)ge f4 :|
|: egec fafc | gbge fafc | egec fafc | (gb)ge f4 :|
